icon/pk/swing.svg

<svg viewBox="0 0 48 48" fill="none" xmlns="http://www.w3.org/2000/svg" height="1em" width="1em">
  <g clip-path="url(#clip0_12383_13620)">
    <path d="M9.99985 35.9998C8.00079 32.4998 7.99899 25.9998 7.99975 16.9998C8.00001 13.9998 11.9995 12.9998 13.9993 15.9998C15.1072 17.6617 15.8159 22.264 15.8159 22.264L22.3109 11.0145C23.0068 9.80903 24.5483 9.396 25.7538 10.092C26.9593 10.788 27.3723 12.3294 26.6763 13.5349L27.0641 12.8633C27.7601 11.6578 29.3015 11.2448 30.507 11.9408C31.7125 12.6368 32.1256 14.1783 31.4296 15.3838L31.0418 16.0554C31.7378 14.8499 33.2793 14.4368 34.4848 15.1328C35.6903 15.8288 36.1033 17.3703 35.4073 18.5758L33.8549 21.2646C34.5517 20.0578 36.0948 19.6443 37.3016 20.3411C38.5066 21.0367 38.921 22.5765 38.2279 23.783L29.0588 39.745C28.9612 39.9148 28.8614 40.0815 28.7382 40.2337C28.1666 40.9395 26.1434 42.9998 21.9999 42.9998C17.3408 42.9998 12.4782 40.339 9.99985 35.9998Z" fill="#2F88FF" stroke="black" stroke-width="4" stroke-linecap="round" stroke-linejoin="round"/>
    <path d="M37 5C38.3788 5.73333 40.5055 6.75828 42 9C43 10.5 43.5 12.5 43.7908 15" stroke="black" stroke-width="4" stroke-linecap="round" stroke-linejoin="round"/>
  </g>
  <defs>
    <clipPath id="clip0_12383_13620">
      <rect width="48" height="48" fill="white"/>
    </clipPath>
  </defs>
</svg>

<svg width="48" height="48" fill="none" xmlns="http://www.w3.org/2000/svg"><g clip-path="url(#a)" stroke="#000" stroke-width="4" stroke-linecap="round" stroke-linejoin="round"><path d="M10 36c-2-3.5-2.001-10-2-19 0-3 4-4 6-1 1.107 1.662 1.816 6.264 1.816 6.264l6.495-11.25a2.52 2.52 0 1 1 4.365 2.52l.388-.67a2.52 2.52 0 1 1 4.366 2.52l-.388.671a2.52 2.52 0 1 1 4.365 2.52l-1.552 2.69a2.523 2.523 0 0 1 4.373 2.518l-9.17 15.962c-.097.17-.197.337-.32.489C28.167 40.94 26.143 43 22 43c-4.66 0-9.522-2.661-12-7Z" fill="#2F88FF"/><path d="M37 5c1.379.733 3.505 1.758 5 4 1 1.5 1.5 3.5 1.79 6"/></g><defs><clipPath id="a"><path fill="#fff" d="M0 0h48v48H0z"/></clipPath></defs></svg>
